X:1
T:[ID 2-39b]
T:[ID 2-39b]
T:Bezeichnung standardisiert: Polonaise Polon\"aise
T:Urheber unbekannt Datum in der hier transkribierten schriftlichen Quelle: 1767
C:Urheber unbekannt
C:Datum in der hier transkribierten schriftlichen Quelle: 1767
L:1/8
M:3/4
K:C
V:1 treble 
V:1
 EE/F/ GG/E/ FF/D/ | EE/D/ EE/D/ E2 | BB/A/ GABc | dc/B/ c2 c2 :: EF/G/ EEEE | CC/_B,/ CC/B,/ C2 | %6
 ^FG/A/ FFFF | DD/C/ DD/C/ D2 | EE/D/ EE/F/ G2 | BB/A/ BB/c/ d2 | cedcFE | D/E/G/E/ C4 :| %12

